src/img/xxl-plus.svg

<svg width="56" height="56" viewBox="0 0 56 56" fill="none" xmlns="http://www.w3.org/2000/svg">
<path d="M43.75 26.8887C43.75 27.1074 43.6543 27.3125 43.4629 27.5039C43.2988 27.668 43.1074 27.75 42.8887 27.75H29.7637V40.875C29.7637 41.1211 29.668 41.3262 29.4766 41.4902C29.3125 41.6543 29.1074 41.7363 28.8613 41.7363C28.6426 41.7363 28.4375 41.6543 28.2461 41.4902C28.082 41.3262 28 41.1211 28 40.875V27.75H14.875C14.6289 27.75 14.4238 27.668 14.2598 27.5039C14.0957 27.3125 14.0137 27.1074 14.0137 26.8887C14.0137 26.6426 14.0957 26.4375 14.2598 26.2734C14.4238 26.082 14.6289 25.9863 14.875 25.9863H28V12.8613C28 12.6426 28.082 12.4512 28.2461 12.2871C28.4375 12.0957 28.6426 12 28.8613 12C29.1074 12 29.3125 12.0957 29.4766 12.2871C29.668 12.4512 29.7637 12.6426 29.7637 12.8613V25.9863H42.8887C43.1074 25.9863 43.2988 26.082 43.4629 26.2734C43.6543 26.4375 43.75 26.6426 43.75 26.8887Z" fill="#56504C"/>
</svg>

<svg width="56" height="56" fill="none" xmlns="http://www.w3.org/2000/svg"><path d="M43.75 26.889c0 .218-.096.424-.287.615a.787.787 0 01-.574.246H29.764v13.125a.777.777 0 01-.287.615.835.835 0 01-.616.246.93.93 0 01-.615-.246.834.834 0 01-.246-.615V27.75H14.875a.834.834 0 01-.615-.246.93.93 0 01-.246-.615c0-.246.082-.451.246-.616a.777.777 0 01.615-.287H28V12.861c0-.218.082-.41.246-.574.192-.191.397-.287.615-.287.246 0 .451.096.616.287.191.164.287.356.287.574v13.125h13.125c.218 0 .41.096.574.287.191.165.287.37.287.616z" fill="#56504C"/></svg>
